KINDER
CUT[ZEHN GAENS IM HABERSTROH]
REG[Europa, Mitteleuropa, Deutschland, Westfalen]
KEY[K1220  16  F 2/4]
MEL[5__  3_1_2_-7_  1__0_
    34  5__3_34  5__3_
    4_  5_3_4_2_  1__
    5__  3_1_2_-7_  1__ //] >>
FCT[Kinder - Lied, Tier - Maerchen]
